public/images/polygon.svg

<svg width="32" height="32" viewBox="0 0 32 32" fill="none" xmlns="http://www.w3.org/2000/svg">
<g id="Group 17">
<g id="Group">
<path id="Vector" d="M23.7154 11.0679C23.1671 10.7546 22.4621 10.7546 21.8355 11.0679L17.4491 13.6527L14.4726 15.2977L10.1645 17.8825C9.61619 18.1958 8.91123 18.1958 8.2846 17.8825L4.91645 15.846C4.36815 15.5326 3.9765 14.906 3.9765 14.201V10.2846C3.9765 9.65796 4.28982 9.03133 4.91645 8.63969L8.2846 6.68146C8.8329 6.36815 9.53786 6.36815 10.1645 6.68146L13.5326 8.71802C14.0809 9.03133 14.4726 9.65796 14.4726 10.3629V12.9478L17.4491 11.2245V8.56136C17.4491 7.93473 17.1358 7.30809 16.5091 6.91645L10.2428 3.23499C9.69452 2.92167 8.98956 2.92167 8.36292 3.23499L1.93995 6.99478C1.31332 7.30809 1 7.93473 1 8.56136V15.9243C1 16.5509 1.31332 17.1775 1.93995 17.5692L8.2846 21.2507C8.8329 21.564 9.53786 21.564 10.1645 21.2507L14.4726 18.7441L17.4491 17.0209L21.7572 14.5144C22.3055 14.201 23.0104 14.201 23.6371 14.5144L27.0052 16.4726C27.5535 16.7859 27.9452 17.4125 27.9452 18.1175V22.0339C27.9452 22.6606 27.6319 23.2872 27.0052 23.6789L23.7154 25.6371C23.1671 25.9504 22.4621 25.9504 21.8355 25.6371L18.4674 23.6789C17.9191 23.3655 17.5274 22.7389 17.5274 22.0339V19.5274L14.5509 21.2507V23.8355C14.5509 24.4621 14.8642 25.0888 15.4909 25.4804L21.8355 29.1619C22.3838 29.4752 23.0888 29.4752 23.7154 29.1619L30.0601 25.4804C30.6084 25.1671 31 24.5405 31 23.8355V16.3943C31 15.7676 30.6867 15.141 30.0601 14.7493L23.7154 11.0679Z" fill="white" fill-opacity="0.44"/>
</g>
</g>
</svg>

<svg xmlns="http://www.w3.org/2000/svg" width="32" height="32" fill="none"><path fill="#fff" fill-opacity=".44" d="M23.715 11.068c-.548-.313-1.253-.313-1.88 0l-4.386 2.585-2.976 1.645-4.309 2.585c-.548.313-1.253.313-1.88 0l-3.368-2.037a1.91 1.91 0 0 1-.94-1.645v-3.916c0-.627.314-1.254.94-1.645l3.369-1.96c.548-.313 1.253-.313 1.88 0l3.368 2.037c.548.313.94.94.94 1.645v2.585l2.976-1.723V8.56c0-.626-.313-1.253-.94-1.645l-6.266-3.681c-.548-.313-1.253-.313-1.88 0L1.94 6.995c-.627.313-.94.94-.94 1.566v7.363c0 .627.313 1.253.94 1.645l6.345 3.682c.548.313 1.253.313 1.88 0l4.308-2.507 2.976-1.723 4.308-2.507c.548-.313 1.253-.313 1.88 0l3.368 1.959c.549.313.94.94.94 1.645v3.916c0 .627-.313 1.253-.94 1.645l-3.29 1.958c-.548.313-1.253.313-1.88 0l-3.368-1.958a1.91 1.91 0 0 1-.94-1.645v-2.507l-2.976 1.724v2.584c0 .627.313 1.254.94 1.645l6.345 3.682c.548.313 1.253.313 1.88 0l6.344-3.682c.548-.313.94-.94.94-1.645v-7.44c0-.627-.313-1.254-.94-1.646l-6.345-3.681Z"/></svg>
